X:123
T:A Waltz
O:No 123 Wm Clarke MS  Feltwell, Norfolk
I:abc2nwc
M:3/4
L:1/8
K:D
a2|d'2af ge|ed cd fd|dc BA Bc|df a2a2|
d'2af ge|ed cd fd|dc BA Bc|d4:|
|:ag|fe ^de ge|ed cd fd|dc BA Bc|de fa gf|
fe ^de ge|ed cd fd|dc BA Bc|d4:|

